images/51014763.svg

<?xml version="1.0" encoding="UTF-8"?>
<svg xmlns="http://www.w3.org/2000/svg" xmlns:xlink="http://www.w3.org/1999/xlink" width="300pt" height="300pt" viewBox="0 0 300 300" version="1.1">
<defs>
<g>
<symbol overflow="visible" id="glyph0-0">
<path style="stroke:none;" d="M 0.796875 2.828125 L 0.796875 -11.28125 L 8.796875 -11.28125 L 8.796875 2.828125 Z M 1.703125 1.9375 L 7.90625 1.9375 L 7.90625 -10.390625 L 1.703125 -10.390625 Z M 1.703125 1.9375 "/>
</symbol>
<symbol overflow="visible" id="glyph0-1">
<path style="stroke:none;" d="M 3.15625 -5.578125 L 3.15625 -1.296875 L 5.6875 -1.296875 C 6.53125 -1.296875 7.15625 -1.472656 7.5625 -1.828125 C 7.976562 -2.179688 8.1875 -2.71875 8.1875 -3.4375 C 8.1875 -4.164062 7.976562 -4.703125 7.5625 -5.046875 C 7.15625 -5.398438 6.53125 -5.578125 5.6875 -5.578125 Z M 3.15625 -10.375 L 3.15625 -6.859375 L 5.484375 -6.859375 C 6.253906 -6.859375 6.828125 -7 7.203125 -7.28125 C 7.585938 -7.570312 7.78125 -8.015625 7.78125 -8.609375 C 7.78125 -9.203125 7.585938 -9.644531 7.203125 -9.9375 C 6.828125 -10.226562 6.253906 -10.375 5.484375 -10.375 Z M 1.578125 -11.671875 L 5.609375 -11.671875 C 6.804688 -11.671875 7.726562 -11.421875 8.375 -10.921875 C 9.03125 -10.421875 9.359375 -9.707031 9.359375 -8.78125 C 9.359375 -8.070312 9.191406 -7.503906 8.859375 -7.078125 C 8.523438 -6.660156 8.035156 -6.398438 7.390625 -6.296875 C 8.171875 -6.128906 8.773438 -5.78125 9.203125 -5.25 C 9.628906 -4.71875 9.84375 -4.054688 9.84375 -3.265625 C 9.84375 -2.222656 9.488281 -1.414062 8.78125 -0.84375 C 8.070312 -0.28125 7.066406 0 5.765625 0 L 1.578125 0 Z M 1.578125 -11.671875 "/>
</symbol>
<symbol overflow="visible" id="glyph0-2">
<path style="stroke:none;" d="M 6.578125 -7.40625 C 6.421875 -7.5 6.242188 -7.566406 6.046875 -7.609375 C 5.859375 -7.660156 5.648438 -7.6875 5.421875 -7.6875 C 4.609375 -7.6875 3.984375 -7.421875 3.546875 -6.890625 C 3.117188 -6.359375 2.90625 -5.597656 2.90625 -4.609375 L 2.90625 0 L 1.453125 0 L 1.453125 -8.75 L 2.90625 -8.75 L 2.90625 -7.390625 C 3.207031 -7.921875 3.597656 -8.316406 4.078125 -8.578125 C 4.566406 -8.835938 5.15625 -8.96875 5.84375 -8.96875 C 5.945312 -8.96875 6.054688 -8.957031 6.171875 -8.9375 C 6.296875 -8.925781 6.429688 -8.910156 6.578125 -8.890625 Z M 6.578125 -7.40625 "/>
</symbol>
<symbol overflow="visible" id="glyph0-3">
<path style="stroke:none;" d="M 1.578125 -11.671875 L 3.703125 -11.671875 L 8.875 -1.90625 L 8.875 -11.671875 L 10.40625 -11.671875 L 10.40625 0 L 8.28125 0 L 3.109375 -9.765625 L 3.109375 0 L 1.578125 0 Z M 1.578125 -11.671875 "/>
</symbol>
<symbol overflow="visible" id="glyph0-4">
<path style="stroke:none;" d="M 6.3125 -10.59375 C 5.164062 -10.59375 4.253906 -10.164062 3.578125 -9.3125 C 2.898438 -8.457031 2.5625 -7.296875 2.5625 -5.828125 C 2.5625 -4.359375 2.898438 -3.195312 3.578125 -2.34375 C 4.253906 -1.488281 5.164062 -1.0625 6.3125 -1.0625 C 7.457031 -1.0625 8.363281 -1.488281 9.03125 -2.34375 C 9.695312 -3.195312 10.03125 -4.359375 10.03125 -5.828125 C 10.03125 -7.296875 9.695312 -8.457031 9.03125 -9.3125 C 8.363281 -10.164062 7.457031 -10.59375 6.3125 -10.59375 Z M 6.3125 -11.875 C 7.945312 -11.875 9.253906 -11.328125 10.234375 -10.234375 C 11.210938 -9.140625 11.703125 -7.671875 11.703125 -5.828125 C 11.703125 -3.984375 11.210938 -2.507812 10.234375 -1.40625 C 9.253906 -0.3125 7.945312 0.234375 6.3125 0.234375 C 4.664062 0.234375 3.351562 -0.3125 2.375 -1.40625 C 1.394531 -2.507812 0.90625 -3.984375 0.90625 -5.828125 C 0.90625 -7.671875 1.394531 -9.140625 2.375 -10.234375 C 3.351562 -11.328125 4.664062 -11.875 6.3125 -11.875 Z M 6.3125 -11.875 "/>
</symbol>
<symbol overflow="visible" id="glyph0-5">
<path style="stroke:none;" d="M 10.3125 -10.765625 L 10.3125 -9.109375 C 9.78125 -9.597656 9.210938 -9.960938 8.609375 -10.203125 C 8.003906 -10.453125 7.363281 -10.578125 6.6875 -10.578125 C 5.351562 -10.578125 4.332031 -10.171875 3.625 -9.359375 C 2.914062 -8.546875 2.5625 -7.367188 2.5625 -5.828125 C 2.5625 -4.285156 2.914062 -3.109375 3.625 -2.296875 C 4.332031 -1.484375 5.351562 -1.078125 6.6875 -1.078125 C 7.363281 -1.078125 8.003906 -1.195312 8.609375 -1.4375 C 9.210938 -1.6875 9.78125 -2.054688 10.3125 -2.546875 L 10.3125 -0.90625 C 9.757812 -0.53125 9.171875 -0.242188 8.546875 -0.046875 C 7.929688 0.140625 7.28125 0.234375 6.59375 0.234375 C 4.832031 0.234375 3.441406 -0.304688 2.421875 -1.390625 C 1.410156 -2.472656 0.90625 -3.953125 0.90625 -5.828125 C 0.90625 -7.703125 1.410156 -9.175781 2.421875 -10.25 C 3.441406 -11.332031 4.832031 -11.875 6.59375 -11.875 C 7.289062 -11.875 7.945312 -11.78125 8.5625 -11.59375 C 9.1875 -11.414062 9.769531 -11.140625 10.3125 -10.765625 Z M 10.3125 -10.765625 "/>
</symbol>
<symbol overflow="visible" id="glyph0-6">
<path style="stroke:none;" d="M 1.515625 -12.15625 L 2.953125 -12.15625 L 2.953125 0 L 1.515625 0 Z M 1.515625 -12.15625 "/>
</symbol>
</g>
</defs>
<g id="surface27409">
<rect x="0" y="0" width="300" height="300" style="fill:rgb(100%,100%,100%);fill-opacity:1;stroke:none;"/>
<path style="fill:none;stroke-width:1.2;stroke-linecap:butt;stroke-linejoin:miter;stroke:rgb(50%,30%,10%);stroke-opacity:1;stroke-miterlimit:10;" d="M 77.292969 57.867188 L 74.632812 76.808594 "/>
<path style="fill:none;stroke-width:1.2;stroke-linecap:butt;stroke-linejoin:miter;stroke:rgb(0%,0%,0%);stroke-opacity:1;stroke-miterlimit:10;" d="M 74.632812 76.808594 L 71.976562 95.746094 "/>
<path style=" stroke:none;fill-rule:nonzero;fill:rgb(100%,100%,100%);fill-opacity:1;" d="M 68.292969 48.367188 L 86.292969 48.367188 L 86.292969 67.367188 L 68.292969 67.367188 Z M 68.292969 48.367188 "/>
<g style="fill:rgb(50%,30%,10%);fill-opacity:1;">
  <use xlink:href="#glyph0-1" x="68.292969" y="63.21875"/>
  <use xlink:href="#glyph0-2" x="79.269531" y="63.21875"/>
</g>
<path style="fill:none;stroke-width:1.2;stroke-linecap:butt;stroke-linejoin:miter;stroke:rgb(0%,0%,0%);stroke-opacity:1;stroke-miterlimit:10;" d="M 71.976562 95.746094 L 102.121094 119.289062 "/>
<path style="fill:none;stroke-width:1.2;stroke-linecap:butt;stroke-linejoin:miter;stroke:rgb(0%,0%,0%);stroke-opacity:1;stroke-miterlimit:10;" d="M 69.453125 105.195312 L 93.570312 124.027344 "/>
<path style="fill:none;stroke-width:1.2;stroke-linecap:butt;stroke-linejoin:miter;stroke:rgb(0%,0%,0%);stroke-opacity:1;stroke-miterlimit:10;" d="M 36.515625 110.082031 L 71.976562 95.746094 "/>
<path style="fill:none;stroke-width:1.2;stroke-linecap:butt;stroke-linejoin:miter;stroke:rgb(0%,0%,0%);stroke-opacity:1;stroke-miterlimit:10;" d="M 102.121094 119.289062 L 96.808594 157.167969 "/>
<path style="fill:none;stroke-width:1.2;stroke-linecap:butt;stroke-linejoin:miter;stroke:rgb(0%,0%,0%);stroke-opacity:1;stroke-miterlimit:10;" d="M 96.808594 157.167969 L 61.34375 171.503906 "/>
<path style="fill:none;stroke-width:1.2;stroke-linecap:butt;stroke-linejoin:miter;stroke:rgb(0%,0%,0%);stroke-opacity:1;stroke-miterlimit:10;" d="M 89.886719 150.257812 L 61.519531 161.726562 "/>
<path style="fill:none;stroke-width:1.2;stroke-linecap:butt;stroke-linejoin:miter;stroke:rgb(0%,0%,0%);stroke-opacity:1;stroke-miterlimit:10;" d="M 96.808594 157.167969 L 126.953125 180.710938 "/>
<path style="fill:none;stroke-width:1.2;stroke-linecap:butt;stroke-linejoin:miter;stroke:rgb(0%,0%,0%);stroke-opacity:1;stroke-miterlimit:10;" d="M 61.34375 171.503906 L 31.199219 147.960938 "/>
<path style="fill:none;stroke-width:1.2;stroke-linecap:butt;stroke-linejoin:miter;stroke:rgb(0%,0%,0%);stroke-opacity:1;stroke-miterlimit:10;" d="M 31.199219 147.960938 L 36.515625 110.082031 "/>
<path style="fill:none;stroke-width:1.2;stroke-linecap:butt;stroke-linejoin:miter;stroke:rgb(0%,0%,0%);stroke-opacity:1;stroke-miterlimit:10;" d="M 40.644531 145.425781 L 44.894531 115.121094 "/>
<path style="fill:none;stroke-width:1.2;stroke-linecap:butt;stroke-linejoin:miter;stroke:rgb(0%,0%,0%);stroke-opacity:1;stroke-miterlimit:10;" d="M 126.953125 180.710938 L 124.296875 199.648438 "/>
<path style="fill:none;stroke-width:1.2;stroke-linecap:butt;stroke-linejoin:miter;stroke:rgb(0%,0%,100%);stroke-opacity:1;stroke-miterlimit:10;" d="M 124.296875 199.648438 L 121.636719 218.589844 "/>
<path style="fill:none;stroke-width:1.2;stroke-linecap:butt;stroke-linejoin:miter;stroke:rgb(0%,0%,0%);stroke-opacity:1;stroke-miterlimit:10;" d="M 135.335938 185.75 L 133.207031 200.902344 "/>
<path style="fill:none;stroke-width:1.2;stroke-linecap:butt;stroke-linejoin:miter;stroke:rgb(0%,0%,100%);stroke-opacity:1;stroke-miterlimit:10;" d="M 133.207031 200.902344 L 131.082031 216.050781 "/>
<path style="fill:none;stroke-width:1.2;stroke-linecap:butt;stroke-linejoin:miter;stroke:rgb(0%,0%,0%);stroke-opacity:1;stroke-miterlimit:10;" d="M 162.414062 166.375 L 126.953125 180.710938 "/>
<path style="fill:none;stroke-width:1.2;stroke-linecap:butt;stroke-linejoin:miter;stroke:rgb(0%,0%,100%);stroke-opacity:1;stroke-miterlimit:10;" d="M 121.636719 218.589844 L 136.710938 230.359375 "/>
<path style="fill:none;stroke-width:1.2;stroke-linecap:butt;stroke-linejoin:miter;stroke:rgb(0%,0%,0%);stroke-opacity:1;stroke-miterlimit:10;" d="M 136.710938 230.359375 L 151.785156 242.132812 "/>
<path style=" stroke:none;fill-rule:nonzero;fill:rgb(100%,100%,100%);fill-opacity:1;" d="M 115.636719 209.089844 L 127.636719 209.089844 L 127.636719 228.089844 L 115.636719 228.089844 Z M 115.636719 209.089844 "/>
<g style="fill:rgb(0%,0%,100%);fill-opacity:1;">
  <use xlink:href="#glyph0-3" x="115.636719" y="223.941406"/>
</g>
<path style="fill:none;stroke-width:1.2;stroke-linecap:butt;stroke-linejoin:miter;stroke:rgb(0%,0%,0%);stroke-opacity:1;stroke-miterlimit:10;" d="M 151.785156 242.132812 L 187.246094 227.796875 "/>
<path style="fill:none;stroke-width:1.2;stroke-linecap:butt;stroke-linejoin:miter;stroke:rgb(0%,0%,0%);stroke-opacity:1;stroke-miterlimit:10;" d="M 187.246094 227.796875 L 192.5625 189.917969 "/>
<path style="fill:none;stroke-width:1.2;stroke-linecap:butt;stroke-linejoin:miter;stroke:rgb(0%,0%,0%);stroke-opacity:1;stroke-miterlimit:10;" d="M 192.5625 189.917969 L 162.414062 166.375 "/>
<path style="fill:none;stroke-width:1.2;stroke-linecap:butt;stroke-linejoin:miter;stroke:rgb(0%,0%,0%);stroke-opacity:1;stroke-miterlimit:10;" d="M 195.085938 180.46875 L 170.96875 161.636719 "/>
<path style="fill:none;stroke-width:1.2;stroke-linecap:butt;stroke-linejoin:miter;stroke:rgb(0%,0%,0%);stroke-opacity:1;stroke-miterlimit:10;" d="M 228.023438 175.582031 L 192.5625 189.917969 "/>
<path style="fill:none;stroke-width:1.2;stroke-linecap:butt;stroke-linejoin:miter;stroke:rgb(0%,0%,0%);stroke-opacity:1;stroke-miterlimit:10;" d="M 162.414062 166.375 L 167.730469 128.496094 "/>
<path style="fill:none;stroke-width:1.2;stroke-linecap:butt;stroke-linejoin:miter;stroke:rgb(0%,0%,0%);stroke-opacity:1;stroke-miterlimit:10;" d="M 167.730469 128.496094 L 203.191406 114.160156 "/>
<path style="fill:none;stroke-width:1.2;stroke-linecap:butt;stroke-linejoin:miter;stroke:rgb(0%,0%,0%);stroke-opacity:1;stroke-miterlimit:10;" d="M 174.648438 135.40625 L 203.019531 123.9375 "/>
<path style="fill:none;stroke-width:1.2;stroke-linecap:butt;stroke-linejoin:miter;stroke:rgb(0%,0%,0%);stroke-opacity:1;stroke-miterlimit:10;" d="M 203.191406 114.160156 L 205.851562 95.21875 "/>
<path style="fill:none;stroke-width:1.2;stroke-linecap:butt;stroke-linejoin:miter;stroke:rgb(100%,0%,0%);stroke-opacity:1;stroke-miterlimit:10;" d="M 205.851562 95.21875 L 208.507812 76.28125 "/>
<path style="fill:none;stroke-width:1.2;stroke-linecap:butt;stroke-linejoin:miter;stroke:rgb(0%,0%,0%);stroke-opacity:1;stroke-miterlimit:10;" d="M 203.191406 114.160156 L 233.339844 137.703125 "/>
<path style="fill:none;stroke-width:1.2;stroke-linecap:butt;stroke-linejoin:miter;stroke:rgb(100%,0%,0%);stroke-opacity:1;stroke-miterlimit:10;" d="M 208.507812 76.28125 L 226.238281 69.113281 "/>
<path style="fill:none;stroke-width:1.2;stroke-linecap:butt;stroke-linejoin:miter;stroke:rgb(0%,0%,0%);stroke-opacity:1;stroke-miterlimit:10;" d="M 226.238281 69.113281 L 243.96875 61.945312 "/>
<path style=" stroke:none;fill-rule:nonzero;fill:rgb(100%,100%,100%);fill-opacity:1;" d="M 202.507812 66.78125 L 215.507812 66.78125 L 215.507812 85.78125 L 202.507812 85.78125 Z M 202.507812 66.78125 "/>
<g style="fill:rgb(100%,0%,0%);fill-opacity:1;">
  <use xlink:href="#glyph0-4" x="202.507812" y="81.632812"/>
</g>
<path style="fill:none;stroke-width:1.2;stroke-linecap:butt;stroke-linejoin:miter;stroke:rgb(0%,0%,0%);stroke-opacity:1;stroke-miterlimit:10;" d="M 233.339844 137.703125 L 251.070312 130.535156 "/>
<path style="fill:none;stroke-width:1.2;stroke-linecap:butt;stroke-linejoin:miter;stroke:rgb(0%,80%,0%);stroke-opacity:1;stroke-miterlimit:10;" d="M 251.070312 130.535156 L 268.800781 123.367188 "/>
<path style="fill:none;stroke-width:1.2;stroke-linecap:butt;stroke-linejoin:miter;stroke:rgb(0%,0%,0%);stroke-opacity:1;stroke-miterlimit:10;" d="M 233.339844 137.703125 L 228.023438 175.582031 "/>
<path style="fill:none;stroke-width:1.2;stroke-linecap:butt;stroke-linejoin:miter;stroke:rgb(0%,0%,0%);stroke-opacity:1;stroke-miterlimit:10;" d="M 223.894531 140.238281 L 219.640625 170.542969 "/>
<path style=" stroke:none;fill-rule:nonzero;fill:rgb(100%,100%,100%);fill-opacity:1;" d="M 260.800781 113.867188 L 276.800781 113.867188 L 276.800781 132.867188 L 260.800781 132.867188 Z M 260.800781 113.867188 "/>
<g style="fill:rgb(0%,80%,0%);fill-opacity:1;">
  <use xlink:href="#glyph0-5" x="260.800781" y="128.71875"/>
  <use xlink:href="#glyph0-6" x="271.972656" y="128.71875"/>
</g>
</g>
</svg>

<svg xmlns="http://www.w3.org/2000/svg" xmlns:xlink="http://www.w3.org/1999/xlink" width="300pt" height="300pt" viewBox="0 0 300 300"><defs><symbol overflow="visible"><path d="M.797 2.828v-14.11h8V2.83zm.906-.89h6.203v-12.33H1.703zm0 0"/></symbol><symbol overflow="visible" id="a"><path d="M3.156-5.578v4.28h2.531c.844 0 1.47-.175 1.875-.53.415-.352.625-.89.625-1.61 0-.726-.21-1.265-.624-1.61-.407-.35-1.032-.53-1.875-.53zm0-4.797v3.516h2.328c.77 0 1.344-.14 1.72-.42.382-.29.577-.736.577-1.33 0-.593-.194-1.035-.577-1.328-.375-.29-.95-.437-1.72-.437zm-1.578-1.297h4.03c1.197 0 2.12.25 2.767.75.656.5.984 1.215.984 2.14 0 .712-.17 1.278-.5 1.704-.337.418-.825.68-1.47.78.782.17 1.383.517 1.813 1.048.426.53.64 1.195.64 1.984 0 1.043-.355 1.852-1.062 2.422C8.07-.28 7.067 0 5.767 0H1.578zm0 0"/></symbol><symbol overflow="visible" id="b"><path d="M6.578-7.406c-.156-.094-.336-.16-.53-.203-.19-.05-.4-.077-.626-.077-.813 0-1.438.265-1.875.796-.43.53-.64 1.292-.64 2.28V0H1.452v-8.75h1.453v1.36c.3-.532.692-.926 1.172-1.188.488-.258 1.078-.39 1.766-.39.1 0 .21.01.328.03.125.012.258.028.406.047zm0 0"/></symbol><symbol overflow="visible" id="c"><path d="M1.578-11.672h2.125l5.172 9.766v-9.766h1.53V0H8.282L3.11-9.766V0H1.577zm0 0"/></symbol><symbol overflow="visible" id="d"><path d="M6.313-10.594c-1.15 0-2.06.43-2.735 1.28-.68.857-1.015 2.017-1.015 3.486 0 1.47.335 2.633 1.015 3.484.676.856 1.586 1.28 2.735 1.28 1.144.002 2.05-.424 2.718-1.28.665-.85 1-2.015 1-3.484 0-1.47-.335-2.63-1-3.484-.667-.852-1.573-1.282-2.717-1.282zm0-1.28c1.632 0 2.94.546 3.92 1.64.978 1.093 1.47 2.562 1.47 4.406 0 1.844-.492 3.32-1.47 4.422-.98 1.093-2.288 1.64-3.92 1.64-1.65 0-2.96-.546-3.938-1.64-.98-1.102-1.47-2.578-1.47-4.422 0-1.844.49-3.313 1.47-4.406.977-1.094 2.29-1.64 3.938-1.64zm0 0"/></symbol><symbol overflow="visible" id="e"><path d="M10.313-10.766v1.657c-.532-.488-1.102-.85-1.704-1.093-.606-.25-1.247-.375-1.922-.375-1.336 0-2.356.406-3.063 1.22-.71.81-1.063 1.99-1.063 3.53 0 1.543.352 2.72 1.063 3.53.707.814 1.727 1.22 3.063 1.22.675 0 1.316-.117 1.92-.36.603-.25 1.173-.617 1.704-1.11v1.642c-.554.375-1.14.664-1.765.86-.617.187-1.266.28-1.953.28-1.762 0-3.153-.54-4.172-1.625C1.41-2.474.906-3.954.906-5.83c0-1.875.504-3.348 1.516-4.422 1.02-1.082 2.41-1.625 4.172-1.625.695 0 1.35.094 1.968.28.626.18 1.208.454 1.75.83zm0 0"/></symbol><symbol overflow="visible" id="f"><path d="M1.516-12.156h1.437V0H1.516zm0 0"/></symbol></defs><g><path fill="#fff" d="M0 0h300v300H0z"/><path d="M77.293 57.867l-2.66 18.942" stroke-width="1.2" stroke="#7f4d1a" stroke-miterlimit="10" fill="none"/><path d="M74.633 76.81l-2.656 18.936" stroke-width="1.2" stroke="#000" stroke-miterlimit="10" fill="none"/><path d="M68.293 48.367h18v19h-18zm0 0" fill="#fff"/><g fill="#7f4d1a"><use xlink:href="#a" x="68.293" y="63.219"/><use xlink:href="#b" x="79.27" y="63.219"/></g><path d="M71.977 95.746l30.144 23.543M69.453 105.195l24.117 18.832M36.516 110.082l35.46-14.336M102.12 119.29l-5.31 37.878M96.81 157.168l-35.466 14.336M89.887 150.258l-28.367 11.47M96.81 157.168l30.143 23.543M61.344 171.504L31.2 147.96M31.2 147.96l5.316-37.878M40.645 145.426l4.25-30.305M126.953 180.71l-2.656 18.938" stroke-width="1.2" stroke="#000" stroke-miterlimit="10" fill="none"/><path d="M124.297 199.648l-2.66 18.942" stroke-width="1.2" stroke="#00f" stroke-miterlimit="10" fill="none"/><path d="M135.336 185.75l-2.13 15.152" stroke-width="1.2" stroke="#000" stroke-miterlimit="10" fill="none"/><path d="M133.207 200.902l-2.125 15.15" stroke-width="1.2" stroke="#00f" stroke-miterlimit="10" fill="none"/><path d="M162.414 166.375l-35.46 14.336" stroke-width="1.2" stroke="#000" stroke-miterlimit="10" fill="none"/><path d="M121.637 218.59l15.074 11.77" stroke-width="1.2" stroke="#00f" stroke-miterlimit="10" fill="none"/><path d="M136.71 230.36l15.075 11.773" stroke-width="1.2" stroke="#000" stroke-miterlimit="10" fill="none"/><path d="M115.637 209.09h12v19h-12zm0 0" fill="#fff"/><use xlink:href="#c" x="115.637" y="223.941" fill="#00f"/><path d="M151.785 242.133l35.46-14.336M187.246 227.797l5.316-37.88M192.563 189.918l-30.15-23.543M195.086 180.47l-24.117-18.833M228.023 175.582l-35.46 14.336M162.414 166.375l5.316-37.88M167.73 128.496l35.46-14.336M174.648 135.406l28.372-11.47M203.19 114.16l2.662-18.94" stroke-width="1.2" stroke="#000" stroke-miterlimit="10" fill="none"/><path d="M205.852 95.22l2.656-18.94" stroke-width="1.2" stroke="#f00" stroke-miterlimit="10" fill="none"/><path d="M203.19 114.16l30.15 23.543" stroke-width="1.2" stroke="#000" stroke-miterlimit="10" fill="none"/><path d="M208.508 76.28l17.73-7.167" stroke-width="1.2" stroke="#f00" stroke-miterlimit="10" fill="none"/><path d="M226.238 69.113l17.73-7.168" stroke-width="1.2" stroke="#000" stroke-miterlimit="10" fill="none"/><path d="M202.508 66.78h13v19h-13zm0 0" fill="#fff"/><use xlink:href="#d" x="202.508" y="81.633" fill="#f00"/><path d="M233.34 137.703l17.73-7.168" stroke-width="1.2" stroke="#000" stroke-miterlimit="10" fill="none"/><path d="M251.07 130.535l17.73-7.168" stroke-width="1.2" stroke="#0c0" stroke-miterlimit="10" fill="none"/><path d="M233.34 137.703l-5.317 37.88M223.895 140.238l-4.254 30.305" stroke-width="1.2" stroke="#000" stroke-miterlimit="10" fill="none"/><path d="M260.8 113.867h16v19h-16zm0 0" fill="#fff"/><g fill="#0c0"><use xlink:href="#e" x="260.801" y="128.719"/><use xlink:href="#f" x="271.973" y="128.719"/></g></g></svg>
